X:2036
T:Bonny At Morn
R:Waltz
C:Trad.
O:England, Northumberland
Z:Paul Hardy's Session Tunebook 2015 (see www.paulhardy.net). Creative Commons cc by-nc-sa licenced.
M:3/4
L:1/8
Q:1/4=120
K:Em
E2|"Em"B3 c BA|B2 E2 FG|"D"A3 G FE|D2 E2 F2|"Em"B3 c BA|B2 E2 FG|"D"A2 F2 D2|"Em"E4 E2|
"Em"B3 c BA|B2 E2 FG|"D"A3 G FE|D2 E2 F2|"Em"ED EF GA|B2 e2 d2|"Bm"B d3 F2|"Em"E6||
|:"Em"E e3 e2|""E3 F G2|"D"F d3 d2|"Bm"D3 E F2|"Em"ED EF GA|B2 e2 d2|"Bm"B d3 F2|"Em"E6:|

